X: 1
T: New Whiteboards
M: 4/4
L: 1/8
R: reel
K: Dmaj
e|: fBB2~ AFde | zgg2~ eBA2 | fBB2~ AFde |1 zbag fed2:|2 zbag fedA||
|: dAab zgfe| fBB2~ AFA2 | dAab zgfe |1 fBB2~ AFd2:|2 fBB2~ AFde||
